X: 36925
T: Shorelines
R: waltz
M: 3/4
K: Eminor
M:4/4
JBd|Je4-e3 {fed}|Jf3 e{a/}d3B|{a/}d B/A/ JB6-|B4-BJc{c/}BG|A2{BAG}E3JB|
JA4-AzJGF/E/|{A/}E8-|E4z2JBd|Je4-e2z d|Jf2{a/}fe{a/}d3B|
{a/}dB JB6-|B4-BJc{c/}BG|A2{BAG}E3JB|JA4-AzJG2-|GE{A/}E6-|E4z2|
zg/a/|Jb6-ba/g/|f4e/d/z Jag/f/|g2fe-e4-|e3z2z2f/g/|{c'/}Ja8-|
a4{c'/}agfJaJ|g2z2Jf2{ed} a/g/a/|e3fgJa2g2|Jf3eJB4d{efed2B2AB}A3GFE4||

